X:1
T:Foelix ille animi
T:Foelix ille animi
T:Jean de Castro
T:Source : Chansons, madrigaux et motetz à 3 parties---Anvers---P.Phalèse---1582. Editor : André Vierendeels (02/02/16).
T:Notes : Original clefs : G2, C2, C3 Editorial accidentals above the staff m51 in T, "do" notated as "re" in original print 
T:©
T:©
T:©
T:©
T:©
T:©
T:©
C:Jean de Castro
Z:©
%%score [ 1 2 3 ]
L:1/8
Q:1/4=120
M:2/2
K:C
V:1 treble nm="Soprano 1" snm="S 1"
V:2 treble nm="Soprano 2" snm="S 2"
V:3 treble-8 nm="Tenor" snm="T"
V:1
 z8 | z8 | e8 | d4 A4 | e4 e4 | f4 e4- | e2 dc B4 | ^c4 e4- | e4 d4 |"^-natural" c4 B4 | ^c6 d2 | %11
w: ||Foe-|lix il-|le, foe-|lix il-||le, foe-|* lix|il- le|a- ni-|
 e8 | z4 e4 | e8 | e4 d4 | e4 f4 | e6 dc | B4 B4 | A2 B2 c2 d2 | e2 f2 g4- | g2 f2 e4 | d8 | %22
w: mi,|di-|vis-|que si-|mil- li-|mus _ _|_ ip-|sis _ _ _|_ _ _|||
 z4 e4 | e4 e4 | g2 f2 e2 d2 | c2 A2 c4- | c4 B4 | A4 d4 | c6 de | f8 | e4 g4- | g2 f2 e4- | %32
w: quem|non men-|da- * * *|||ci re-|splen- * *||dens glo-|* ri- a,|
 e4 c4- | c2 B2 A4 | f6 e2 | d4 g4- | g2 f2 e4- | e4 d4 | G4 A4 | c2 B2 A4- | A4 G4 | A4 z2 e2 | %42
w: _ glo-|* ri- a,|glo- ri-|a, glo-|* ri- a|_ fu-|co sol-|li- * *|* ci-|tat, non|
 f4 e4 | A4 d4 | c4 B2 G2 | A4 B4 | c2 e2 f4 | e4 d4 | z4 z2 B2 | c4 B4 | A4 e2 e2 | d2 d2 ^c4 | %52
w: fa- sto-|si ma-|la gau- di-|a lu-|xus, non fa-|sto- si,|non|fa- sto-|si ma- la|gau- di- a,|
 z4 d4 | e8 | e6 f2 | d4 e4 | A8 | z4 A4- | A4 E4- | E4 D4 | E8 | z4 e4- | e4 d4- | d4 c4 | %64
w: ma-|la|gau- di-|a lu-|xus,|sed|_ ta-|* ci-|tos|fi-|* nit|_ i-|
 e4 d2 ef | g8 | f4 d4- | d4 c4- |"^-natural" c4 B4- | B4 A4 | e8 | f6 e2 | d8 | z4 c4- | c4 A4- | %75
w: re di- * *||es, fi-|* nit|_ i-|* re|di-||es,|et|_ pau-|
 A4 G4 | F8 | E8 | A8 | z2 d4 ^c2 | d4 f4 | e4 d4 | c4 z2 d2- | d2 c2 e4 | d2 c4 B2 | c6 BA | G8 | %87
w: * pe-|re|cul-|tu|ex- i-|git in-|no- cu-|ae, ex-|* i- git|in- no- cu-||ae|
 z4 c4- | c4 B4 | G8 | z4 E4 | A8- | A4 G4 | G6 F2 | E4 c4- | c2 d2 e4- | e4 d2 c2 | B8 | ^c8 |] %99
w: tran|_ quil-|la|si-|len-|* ti-|a _|_ vi-||||tae.|
V:2
 A8 | G4 D4 | A4 E4 | G4 F4 | E4 G4 | A2 B2 c2 A2 | B4 G4 |"^-natural" A4 c4- | c2 B2 A4- | %9
w: Foe-|lix il-|le, foe-|lix il-|le, foe-|lix _ _ _|_ il-|le a-||
"^#" A4 G4 | A8 | z4 E4 | E8 | A8 | z2 c2 B2 B2 | c4 A4 | G2 E2 A4- |"^#""^#" A2 G2 G4 | c4 A4 | %19
w: * ni-|mi,|di-|vis-|que|si- mil- li-|mus ip-|sis, si- mil-|* li- mus|ip- sis|
 z4 B4 | G4 c4- | c4 B4 | c4 G4 | A4 G4 | z4 E4 | E4 E4 | G8 | ^F4 A4- | A4 c4- | c2 BA B4 | %30
w: quem|non men-|* da-|ci, men-|da- ci,|quem|non men-|da-|ci re-|* splen-||
 c4 G2 F2 | E8 | c6 B2 | A4 F4- | F2 E2 D4 | G6 F2 | E4 c4- | c2 B2 A4 | E4 c4 | A8 | B6 B2 | ^c8 | %42
w: dens glo- ri-|a,|glo- ri-|a, glo-|* ri- a,|glo- ri-|a, glo-|* ri- a|fu- co|sol-|li- ci-|tat,|
 z4 A4 | c4 B4 | A4 G2 c2- | c2 A4 G2 | A8 | z4 B4 | c4 B4 | A4 G4 | c4 c2 c2 | B4 A4 | G4 G4 | %53
w: non|fa- sto-|si ma- la|_ gau- di-|a,|non|fa- sto-|si ma-|la gau- di-|a lu-|xus, ma-|
 c8 | B4 A4 |"^#" B2 d4 c2 | d4 D4 | F6 F2 | E4 C4- | C4 D4- | D4 C4 |"^-natural" D2 CB, A,4 | z8 | %63
w: la|gau- di-|a lu- *|xus, sed|ta- ci-|tos, [sed|_ ta-|* ci-|tos, _ _ ]||
 A8 | B8- | B4 c4 | A8 | _B4 A4 | z4 G4- | G4 F4 | G4 c2 B2 | A2 G2 A4- | A4 G4 | A6 GF | E4 E4 | %75
w: fi-|nit|_ i-|re|di- es,|fi-|* nit|i- re _|_ _ _|* di-|es, _ _|_ pau-|
 F2 F2 E4- | E4 D4- |"^#" D2 CB, C4 | D2 F4 E2 | F4 E4 | G4 A4 | G2 c4 B2 | A2 E2 F2 G2 | E4 c4 | %84
w: pe- re cul-|||tu ex- i-|git in-|no- cu-|ae, ex- i-|git in- no- cu-|ae, in-|
 A4 F4 | E8 | E8- | E8 | D8 | E8 | C8 | A,8- | A,4 B,4 | B,8 | C6 D2 | E2 F2 G4- | G2 E2 A4- | %97
w: no- cu-|ae|tran-||quil-|la|si-|len-|* ti|a|vi- *|||
"^#""^#""^#" A2 GF G4 | A8 |] %99
w: |tae.|
V:3
 z8 | z8 | z8 | z8 | z4 e4 | d4 A4 | e8 | a6 g2 | f4 f4 | e8 | z4 A4 | A8 | A4 ^G4 | A2 B2 c2 d2 | %14
w: ||||Foe-|lix il-|le,|a- *|* ni-|mi,|di-|vis-|que si-|mil- * * *|
 e2 c2 g4 | c4 d4 | e8- | e8 | A8 | z4 e4 | e4 e4 | g8 | c4 c4 | A2 A2 e4- | e2 d2 c2 B2 | A8 | %26
w: |li- mus|ip-||sis|quem|non men-|da-|ci, quem|non men- da-|||
 G8 | d8 |"^-natural" f6 e2 | d8 | c8 | c6 B2 | A8 | f6 e2 | d4 B4- | B2 A2 G4 | c6 B2 | A4 d4 | %38
w: ci|re-|splen- *||dens|glo- ri-|a,|glo- ri-|a, glo-|* ri- a,|glo- ri-|a fu-|
 c4 A4 | e6 e2 | d8 | z8 | z8 | z8 | z4 e4 | f4 e4 | A4 d4 | c4 G2 G2 | A4 e4 | A4 z2 e2 | f4 c4 | %51
w: co sol-|li ci-|tat,||||non|fa- sto-|si ma-|la gau- di-|a lu-|xus, non|fa- sto-|
 G4 z2 A2 |"^-natural" c4 B4 | A4 a4 | ^g4 a2 d2 | g4 e4 | d8 | d8 | A8- | A4 _B4 | A8 | a8 | g8 | %63
w: si non|fa- sto-|si ma-|la gau- di-|a lu-|xus,|sed|ta-|* ci-|tos|fi-|nit|
 f8 | g8 | e8 | d8 | z8 | e8 | d8 | c8 | d8 | B8 | A8- | A8 | z8 | z8 | z8 | z2 d4 ^c2 | d4 A2 A2 | %80
w: i-|re|di-|es,||fi-|nit|i-|re|di-|es,|_||||ex- i-|git, ex- i-|
 G4 F4 | c2 c2 G4 | z2 A4 G2 | A4 A4 | f4 d4 | c8 | c8- | c8 | G8 | c8 | A8 | F8- | F4 E4 | E8 | %94
w: git in-|no- cu- ae,|ex- i-|git in-|no- cu-|ae|tran-||quil-|la|si-|len-|* ti-|a|
 A6 B2 | c8- | c4 B2 A2 | e8 | A8 |] %99
w: vi- *||||tae.|

